!!!OTL: "Kommt her zu mir"! spricht Gottes Sohn. / (Geistliches Lied von G. Gruenwald. 1530.)
!!!ARE: Europa, Mitteleuropa, Deutschland
!!!SCT: A0636A
!!!TXL: @@DE
!!!YEM: Copyright 1995, estate of Helmut Schaffrath.
**kern	**text
*M4/2	*
*met(c|)	*
*clefC4	*
*k[b-]	*
*g:dor	*
=1	=1
!LO:TX:a:t=dor. tr.	!
{1G	"Kumpt
2G	her
2G	ʒu
=2	=2
1.d	mir,"
2c	ſagt
=3	=3
2d	Got-
2B-	-tes
1A	ſon,
=4||	=4||
2r}	.
{2G	"all
2B-	die
2A	jr
=5	=5
1.B-	ſeid
2d	be-
=6	=6
2c	-ſchwe-
2B-	-ret
1A	nun,
=7||	=7||
2r}	.
{2A/	mit
2G	ſün-
2G	-den
=8	=8
*lig	*
2.c	faſt
4B-	.
2A	.
*Xlig	*
2B-	be-
=9	=9
1G	-la-
1F	-den;
=10||	=10||
2r}	.
{2F	ir
2B-	jun-
2A	-gen,
=11	=11
1.B-	al-
2d	-ten,
=12	=12
2c	fraw
2B-	vnd
1A	man,
=13||	=13||
2r}	.
{2G	ich
2B-	wil
2A	euch
=14	=14
1.B-	ge-
2d	-ben
=15	=15
2c	was
2B-	ich
1A	han,
=16||	=16||
2r}	.
!LO:TX:a:t=NB.	!
{2A/	vnd
2G	hei-
2A/	-len
=17	=17
2B-	ew-
!LO:TX:a:t=+	!
2A	-ren
2.d	ſcha-
4c	.
=18	=18
2B-	.
2c	.
1A	.
=19	=19
0G/ll}	-den.
==	==
!!!GTL: Geistliche Volkslieder
!!!AGN: Romanze, Ballade, Lied, religioeses Lied
!! Joh. Ott 1534 No. 15
!!!ONB: ESAC (Essen Associative Code) Database: ALTDEU
!!!AMT: simple quadruple
!!!AIN: vox
!!!EED: Helmut Schaffrath
!!!EEV: 1.0
!!!RDF**kern: l = terminal long
!!!AMD: Dorian
!!!URL-scan: https://rosdok.uni-rostock.de/mcrviewer/recordIdentifier/rosdok_ppn738218359/iview2/phys_0817.iview2?x=105.19263581881364&y=147.97638719482347&scale=0.7106933083589261&rotation=0&layout=singlePageLayout&logicalDiv=log_0007
!!!ENC: Anna Maria Matuszewska
!!!EEV: 2024/25/03
*-	*-
